src/assets/svgs/refactor/settings.svg

<svg fill="none" height="35" viewBox="0 0 35 35" width="35" xmlns="http://www.w3.org/2000/svg" xmlns:xlink="http://www.w3.org/1999/xlink"><clipPath id="a"><path d="m0 0h35v35h-35z"/></clipPath><g clip-path="url(#a)" fill="#101010"><path d="m19.4007 0h-3.7914c-1.1092 0-2.0066.897436-2.0066 2.00663v2.3293c-.9176.27225-1.7949.63526-2.6419 1.08902l-1.65368-1.6537c-.78652-.78652-2.05705-.78652-2.84357 0l-2.68222 2.68222c-.78652.78652-.78652 2.05705 0 2.84356l1.6537 1.65367c-.45376.837-.82685 1.7243-1.08902 2.6419h-2.33938c-1.109194 0-2.00663.8975-2.00663 2.0067v3.7914c0 1.1092.897436 2.0066 2.00663 2.0066h2.3293c.27225.9176.63526 1.7949 1.08902 2.6419l-1.6537 1.6537c-.38318.3832-.58485.8873-.58485 1.4218 0 .5344.21176 1.0386.58485 1.4217l2.68222 2.6823c.38318.3831.88735.5848 1.42178.5848s1.03861-.2117 1.42178-.5848l1.65367-1.6537c.837.4537 1.7243.8268 2.6419 1.089v2.3293c0 1.1092.8975 2.0066 2.0067 2.0066h3.7914c1.1092 0 2.0066-.8974 2.0066-2.0066v-2.3293c.9176-.2723 1.7949-.6353 2.6419-1.089l1.6537 1.6537c.7865.7865 2.057.7865 2.8435 0l2.6823-2.6823c.3831-.3831.5848-.8873.5848-1.4217 0-.5345-.2117-1.0386-.5848-1.4218l-1.6537-1.6537c.4537-.837.8268-1.7243 1.089-2.6419h2.3293c1.1092 0 2.0066-.8974 2.0066-2.0066v-3.7914c0-1.1092-.8974-2.0067-2.0066-2.0067h-2.3293c-.2723-.9176-.6353-1.7948-1.089-2.6419l1.6537-1.65367c.7865-.78651.7865-2.05704 0-2.84356l-2.6823-2.68222c-.7865-.78652-2.057-.78652-2.8435 0l-1.6537 1.6537c-.837-.45376-1.7243-.82685-2.6419-1.08902v-2.3293c.0101-1.109194-.8874-2.00663-1.9966-2.00663zm4.215 7.845c.4537.29242 1.0487.22184 1.4318-.16134l2.0772-2.07721 2.2789 2.27889-2.0772 2.07721c-.3832.38315-.4437.97815-.1613 1.43185.7058 1.1092 1.21 2.3293 1.4923 3.6099.121.5244.5849.8975 1.1193.8975h2.9343v3.2166h-2.9343c-.5344 0-1.0083.3731-1.1193.8974-.2823 1.2807-.7865 2.4907-1.4923 3.61-.2924.4537-.2219 1.0486.1613 1.4318l2.0772 2.0772-2.2789 2.2789-2.0772-2.0772c-.3831-.3832-.9781-.4437-1.4318-.1613-1.1092.7058-2.3293 1.21-3.6099 1.4923-.5244.121-.8975.5849-.8975 1.1193v2.9343h-3.2166v-2.9343c0-.5344-.3731-1.0084-.8975-1.1193-1.2806-.2823-2.4906-.7865-3.6099-1.4923-.4537-.2925-1.0487-.2219-1.43184.1613l-2.07721 2.0772-2.27888-2.2789 2.07721-2.0772c.38318-.3832.44368-.9781.16134-1.4318-.70585-1.1092-1.21003-2.3293-1.49237-3.61-.121-.5243-.58484-.8974-1.11927-.8974h-2.93431v-3.2166h2.93431c.53443 0 1.00835-.3731 1.11927-.8975.28234-1.2806.78652-2.4906 1.49237-3.6099.29242-.4537.22184-1.0487-.16134-1.43185l-2.07721-2.07721 2.27888-2.27889 2.07721 2.07721c.38314.38318.97814.44368 1.43184.16134 1.1092-.70585 2.3293-1.21002 3.6099-1.49236.5244-.12101.8975-.58485.8975-1.11928v-2.93431h3.2166v2.93431c0 .53443.3731 1.00836.8975 1.11928 1.2806.28234 2.4906.78651 3.6099 1.49236z"/><path d="m17.0514 8.84326c-4.3864.22184-7.98618 3.83174-8.20802 8.21814-.121 2.4503.7966 4.8501 2.53102 6.5744 1.6234 1.6235 3.8418 2.5411 6.1408 2.5411.1412 0 .2824 0 .4336-.0101.6353-.0303 1.1193-.5748 1.089-1.1999-.0302-.6353-.5747-1.1193-1.1999-1.0891-1.8352.0908-3.5494-.5747-4.8401-1.8553-1.2907-1.2807-1.9461-3.0049-1.8554-4.8401.1614-3.2167 2.8133-5.8687 6.03-6.0401 1.8352-.0907 3.6805.6454 4.951 1.9663 2.6318 2.7528 1.9361 6.8064-.2117 8.9744-.4437.4537-.4437 1.1797 0 1.6234.4537.4437 1.1797.4437 1.6234 0 1.5327-1.5428 2.4705-3.6906 2.5814-5.8787.121-2.3595-.7159-4.588-2.3394-6.2921-1.7444-1.82515-4.1947-2.80326-6.7257-2.67217z"/></g></svg>

<svg width="35" height="35" viewBox="0 0 35 35" fill="none" xmlns="http://www.w3.org/2000/svg">
<g clip-path="url(#clip0_1438_4432)">
<path d="M19.4007 0H15.6093C14.5001 0 13.6027 0.897436 13.6027 2.00663V4.33593C12.6851 4.60818 11.8078 4.97119 10.9608 5.42495L9.30712 3.77125C8.5206 2.98473 7.25007 2.98473 6.46355 3.77125L3.78133 6.45347C2.99481 7.23999 2.99481 8.51052 3.78133 9.29703L5.43503 10.9507C4.98127 11.7877 4.60818 12.675 4.34601 13.5926H2.00663C0.897436 13.5926 0 14.4901 0 15.5993V19.3907C0 20.4999 0.897436 21.3973 2.00663 21.3973H4.33593C4.60818 22.3149 4.97119 23.1922 5.42495 24.0392L3.77125 25.6929C3.38807 26.0761 3.1864 26.5802 3.1864 27.1147C3.1864 27.6491 3.39816 28.1533 3.77125 28.5364L6.45347 31.2187C6.83665 31.6018 7.34082 31.8035 7.87525 31.8035C8.40968 31.8035 8.91386 31.5918 9.29703 31.2187L10.9507 29.565C11.7877 30.0187 12.675 30.3918 13.5926 30.654V32.9833C13.5926 34.0925 14.4901 34.9899 15.5993 34.9899H19.3907C20.4999 34.9899 21.3973 34.0925 21.3973 32.9833V30.654C22.3149 30.3817 23.1922 30.0187 24.0392 29.565L25.6929 31.2187C26.4794 32.0052 27.7499 32.0052 28.5364 31.2187L31.2187 28.5364C31.6018 28.1533 31.8035 27.6491 31.8035 27.1147C31.8035 26.5802 31.5918 26.0761 31.2187 25.6929L29.565 24.0392C30.0187 23.2022 30.3918 22.3149 30.654 21.3973H32.9833C34.0925 21.3973 34.9899 20.4999 34.9899 19.3907V15.5993C34.9899 14.4901 34.0925 13.5926 32.9833 13.5926H30.654C30.3817 12.675 30.0187 11.7978 29.565 10.9507L31.2187 9.29703C32.0052 8.51052 32.0052 7.23999 31.2187 6.45347L28.5364 3.77125C27.7499 2.98473 26.4794 2.98473 25.6929 3.77125L24.0392 5.42495C23.2022 4.97119 22.3149 4.5981 21.3973 4.33593V2.00663C21.4074 0.897436 20.5099 0 19.4007 0ZM23.6157 7.845C24.0694 8.13742 24.6644 8.06684 25.0475 7.68366L27.1247 5.60645L29.4036 7.88534L27.3264 9.96255C26.9432 10.3457 26.8827 10.9407 27.1651 11.3944C27.8709 12.5036 28.3751 13.7237 28.6574 15.0043C28.7784 15.5287 29.2423 15.9018 29.7767 15.9018H32.711V19.1184H29.7767C29.2423 19.1184 28.7684 19.4915 28.6574 20.0158C28.3751 21.2965 27.8709 22.5065 27.1651 23.6258C26.8727 24.0795 26.9432 24.6744 27.3264 25.0576L29.4036 27.1348L27.1247 29.4137L25.0475 27.3365C24.6644 26.9533 24.0694 26.8928 23.6157 27.1752C22.5065 27.881 21.2864 28.3852 20.0058 28.6675C19.4814 28.7885 19.1083 29.2524 19.1083 29.7868V32.7211H15.8917V29.7868C15.8917 29.2524 15.5186 28.7784 14.9942 28.6675C13.7136 28.3852 12.5036 27.881 11.3843 27.1752C10.9306 26.8827 10.3356 26.9533 9.95246 27.3365L7.87525 29.4137L5.59637 27.1348L7.67358 25.0576C8.05676 24.6744 8.11726 24.0795 7.83492 23.6258C7.12907 22.5166 6.62489 21.2965 6.34255 20.0158C6.22155 19.4915 5.75771 19.1184 5.22328 19.1184H2.28897V15.9018H5.22328C5.75771 15.9018 6.23163 15.5287 6.34255 15.0043C6.62489 13.7237 7.12907 12.5137 7.83492 11.3944C8.12734 10.9407 8.05676 10.3457 7.67358 9.96255L5.59637 7.88534L7.87525 5.60645L9.95246 7.68366C10.3356 8.06684 10.9306 8.12734 11.3843 7.845C12.4935 7.13915 13.7136 6.63498 14.9942 6.35264C15.5186 6.23163 15.8917 5.76779 15.8917 5.23336V2.29905H19.1083V5.23336C19.1083 5.76779 19.4814 6.24172 20.0058 6.35264C21.2864 6.63498 22.4964 7.13915 23.6157 7.845Z" fill="#101010"/>
<path d="M17.0514 8.84326C12.665 9.0651 9.06522 12.675 8.84338 17.0614C8.72238 19.5117 9.63998 21.9115 11.3744 23.6358C12.9978 25.2593 15.2162 26.1769 17.5152 26.1769C17.6564 26.1769 17.7976 26.1769 17.9488 26.1668C18.5841 26.1365 19.0681 25.592 19.0378 24.9669C19.0076 24.3316 18.4631 23.8476 17.8379 23.8778C16.0027 23.9686 14.2885 23.3031 12.9978 22.0225C11.7071 20.7418 11.0517 19.0176 11.1424 17.1824C11.3038 13.9657 13.9557 11.3137 17.1724 11.1423C19.0076 11.0516 20.8529 11.7877 22.1234 13.1086C24.7552 15.8614 24.0595 19.915 21.9117 22.083C21.468 22.5367 21.468 23.2627 21.9117 23.7064C22.3654 24.1501 23.0914 24.1501 23.5351 23.7064C25.0678 22.1636 26.0056 20.0158 26.1165 17.8277C26.2375 15.4682 25.4006 13.2397 23.7771 11.5356C22.0327 9.71045 19.5824 8.73234 17.0514 8.86343V8.84326Z" fill="#101010"/>
</g>
<defs>
<clipPath id="clip0_1438_4432">
<rect width="35" height="35" fill="white"/>
</clipPath>
</defs>
</svg>
